TileServer und Tiles/svg/9/19_21.svg

<?xml version='1.0' encoding='UTF-8' standalone='no'?>
<svg xmlns="http://www.w3.org/2000/svg" width="497pt" viewBox="0 0 497 279" xmlns:xlink="http://www.w3.org/1999/xlink" height="279pt">
 <defs style="stroke:none;" overflow="visible">
  <path id="glyph0-7" d="M 4.015625 -5.359375 L 4.984375 -5.359375 L 2.6875 -2.78125 L 5.171875 0 L 4.15625 0 L 1.734375 -2.71875 L 1.734375 0 L 0.84375 0 L 0.84375 -5.359375 L 1.734375 -5.359375 L 1.734375 -2.765625 Z M 4.015625 -5.359375 "/>
  <path id="glyph0-6" d="M 3 0.09375 C 2.53125 0.09375 2.109375 0 1.734375 -0.1875 C 1.367188 -0.382812 1.078125 -0.6875 0.859375 -1.09375 C 0.648438 -1.5 0.546875 -2.019531 0.546875 -2.65625 C 0.546875 -3.3125 0.65625 -3.84375 0.875 -4.25 C 1.09375 -4.664062 1.390625 -4.96875 1.765625 -5.15625 C 2.148438 -5.351562 2.582031 -5.453125 3.0625 -5.453125 C 3.332031 -5.453125 3.59375 -5.425781 3.84375 -5.375 C 4.101562 -5.320312 4.3125 -5.253906 4.46875 -5.171875 L 4.203125 -4.4375 C 4.035156 -4.5 3.84375 -4.554688 3.625 -4.609375 C 3.414062 -4.660156 3.222656 -4.6875 3.046875 -4.6875 C 1.984375 -4.6875 1.453125 -4.007812 1.453125 -2.65625 C 1.453125 -2.007812 1.582031 -1.515625 1.84375 -1.171875 C 2.101562 -0.828125 2.484375 -0.65625 2.984375 -0.65625 C 3.285156 -0.65625 3.546875 -0.6875 3.765625 -0.75 C 3.984375 -0.8125 4.1875 -0.882812 4.375 -0.96875 L 4.375 -0.1875 C 4.195312 -0.09375 4 -0.0234375 3.78125 0.015625 C 3.5625 0.0664062 3.300781 0.09375 3 0.09375 Z M 3 0.09375 "/>
  <path id="glyph0-5" d="M 1.734375 -3.15625 L 3.3125 -3.15625 C 4.707031 -3.15625 5.40625 -2.648438 5.40625 -1.640625 C 5.40625 -1.140625 5.234375 -0.738281 4.890625 -0.4375 C 4.554688 -0.144531 4.019531 0 3.28125 0 L 0.84375 0 L 0.84375 -5.359375 L 1.734375 -5.359375 Z M 4.53125 -1.59375 C 4.53125 -1.914062 4.414062 -2.132812 4.1875 -2.25 C 3.957031 -2.375 3.632812 -2.4375 3.21875 -2.4375 L 1.734375 -2.4375 L 1.734375 -0.703125 L 3.234375 -0.703125 C 3.609375 -0.703125 3.914062 -0.769531 4.15625 -0.90625 C 4.40625 -1.039062 4.53125 -1.269531 4.53125 -1.59375 Z M 4.53125 -1.59375 "/>
  <path id="glyph0-4" d="M 4.9375 0 L 4.046875 0 L 4.046875 -4.625 L 2.453125 -4.625 C 2.367188 -3.5 2.25 -2.59375 2.09375 -1.90625 C 1.945312 -1.21875 1.742188 -0.71875 1.484375 -0.40625 C 1.234375 -0.09375 0.914062 0.0625 0.53125 0.0625 C 0.445312 0.0625 0.363281 0.0546875 0.28125 0.046875 C 0.195312 0.046875 0.125 0.03125 0.0625 0 L 0.0625 -0.65625 C 0.101562 -0.644531 0.144531 -0.632812 0.1875 -0.625 C 0.238281 -0.625 0.289062 -0.625 0.34375 -0.625 C 0.695312 -0.625 0.984375 -1.003906 1.203125 -1.765625 C 1.421875 -2.535156 1.585938 -3.734375 1.703125 -5.359375 L 4.9375 -5.359375 Z M 4.9375 0 "/>
  <path id="glyph0-3" d="M 0.5625 -3.21875 C 0.5625 -4.394531 0.738281 -5.3125 1.09375 -5.96875 C 1.445312 -6.625 2.019531 -7.035156 2.8125 -7.203125 C 3.238281 -7.296875 3.660156 -7.378906 4.078125 -7.453125 C 4.492188 -7.523438 4.878906 -7.59375 5.234375 -7.65625 L 5.390625 -6.875 C 5.160156 -6.84375 4.894531 -6.800781 4.59375 -6.75 C 4.300781 -6.707031 4.007812 -6.660156 3.71875 -6.609375 C 3.4375 -6.554688 3.191406 -6.503906 2.984375 -6.453125 C 2.554688 -6.359375 2.210938 -6.132812 1.953125 -5.78125 C 1.703125 -5.425781 1.5625 -4.875 1.53125 -4.125 L 1.59375 -4.125 C 1.6875 -4.25 1.8125 -4.375 1.96875 -4.5 C 2.132812 -4.632812 2.332031 -4.75 2.5625 -4.84375 C 2.789062 -4.9375 3.050781 -4.984375 3.34375 -4.984375 C 4.039062 -4.984375 4.566406 -4.757812 4.921875 -4.3125 C 5.273438 -3.875 5.453125 -3.296875 5.453125 -2.578125 C 5.453125 -1.984375 5.347656 -1.484375 5.140625 -1.078125 C 4.929688 -0.679688 4.644531 -0.382812 4.28125 -0.1875 C 3.914062 0 3.488281 0.09375 3 0.09375 C 2.257812 0.09375 1.664062 -0.1875 1.21875 -0.75 C 0.78125 -1.3125 0.5625 -2.132812 0.5625 -3.21875 Z M 3.0625 -0.625 C 3.5 -0.625 3.847656 -0.765625 4.109375 -1.046875 C 4.378906 -1.328125 4.515625 -1.804688 4.515625 -2.484375 C 4.515625 -3.035156 4.410156 -3.46875 4.203125 -3.78125 C 4.003906 -4.101562 3.671875 -4.265625 3.203125 -4.265625 C 2.910156 -4.265625 2.644531 -4.195312 2.40625 -4.0625 C 2.164062 -3.9375 1.960938 -3.789062 1.796875 -3.625 C 1.640625 -3.457031 1.53125 -3.316406 1.46875 -3.203125 C 1.46875 -2.867188 1.488281 -2.550781 1.53125 -2.25 C 1.582031 -1.945312 1.664062 -1.671875 1.78125 -1.421875 C 1.894531 -1.179688 2.054688 -0.988281 2.265625 -0.84375 C 2.484375 -0.695312 2.75 -0.625 3.0625 -0.625 Z M 3.0625 -0.625 "/>
  <path id="glyph0-2" d="M 5.515625 -2.6875 C 5.515625 -1.800781 5.285156 -1.113281 4.828125 -0.625 C 4.378906 -0.144531 3.773438 0.09375 3.015625 0.09375 C 2.535156 0.09375 2.109375 -0.0078125 1.734375 -0.21875 C 1.367188 -0.4375 1.078125 -0.753906 0.859375 -1.171875 C 0.648438 -1.585938 0.546875 -2.09375 0.546875 -2.6875 C 0.546875 -3.570312 0.769531 -4.253906 1.21875 -4.734375 C 1.664062 -5.210938 2.273438 -5.453125 3.046875 -5.453125 C 3.523438 -5.453125 3.945312 -5.34375 4.3125 -5.125 C 4.6875 -4.914062 4.976562 -4.601562 5.1875 -4.1875 C 5.40625 -3.78125 5.515625 -3.28125 5.515625 -2.6875 Z M 1.453125 -2.6875 C 1.453125 -2.050781 1.578125 -1.546875 1.828125 -1.171875 C 2.078125 -0.804688 2.476562 -0.625 3.03125 -0.625 C 3.570312 -0.625 3.96875 -0.804688 4.21875 -1.171875 C 4.46875 -1.546875 4.59375 -2.050781 4.59375 -2.6875 C 4.59375 -3.320312 4.46875 -3.816406 4.21875 -4.171875 C 3.96875 -4.535156 3.566406 -4.71875 3.015625 -4.71875 C 2.472656 -4.71875 2.078125 -4.535156 1.828125 -4.171875 C 1.578125 -3.816406 1.453125 -3.320312 1.453125 -2.6875 Z M 1.453125 -2.6875 "/>
  <path id="glyph0-1" d="M 3.234375 0 L 2.328125 0 L 2.328125 -6.34375 L 0.09375 -6.34375 L 0.09375 -7.140625 L 5.453125 -7.140625 L 5.453125 -6.34375 L 3.234375 -6.34375 Z M 3.234375 0 "/>
  <path id="glyph0-0" d="M 0.9375 0 L 0.9375 -7.140625 L 5.046875 -7.140625 L 5.046875 0 Z M 1.453125 -0.515625 L 4.546875 -0.515625 L 4.546875 -6.625 L 1.453125 -6.625 Z M 1.453125 -0.515625 "/>
 </defs>
 <image width="497" xlink:href="svg/9/19_21.jpg" height="279"/>
 <g>
  <path d="M 373.914062 237.007812 L 373.007812 237.007812 L 373.007812 230.664062 L 370.773438 230.664062 L 370.773438 229.867188 L 376.132812 229.867188 L 376.132812 230.664062 L 373.914062 230.664062 Z M 373.914062 237.007812 " transform=" rotate(  340 392.843 234.006) " style="fill:none;stroke-width:3;stroke-linecap:butt;stroke-linejoin:round;stroke:rgb(100%,100%,100%);stroke-opacity:0.6;stroke-miterlimit:10;"/>
  <path d="M 381.054688 234.320312 C 381.054688 235.207031 380.824219 235.894531 380.367188 236.382812 C 379.917969 236.863281 379.3125 237.101562 378.554688 237.101562 C 378.074219 237.101562 377.648438 237 377.273438 236.789062 C 376.90625 236.570312 376.617188 236.253906 376.398438 235.835938 C 376.1875 235.421875 376.085938 234.914062 376.085938 234.320312 C 376.085938 233.4375 376.308594 232.753906 376.757812 232.273438 C 377.203125 231.796875 377.8125 231.554688 378.585938 231.554688 C 379.0625 231.554688 379.484375 231.664062 379.851562 231.882812 C 380.226562 232.09375 380.515625 232.40625 380.726562 232.820312 C 380.945312 233.226562 381.054688 233.726562 381.054688 234.320312 Z M 376.992188 234.320312 C 376.992188 234.957031 377.117188 235.460938 377.367188 235.835938 C 377.617188 236.203125 378.015625 236.382812 378.570312 236.382812 C 379.109375 236.382812 379.507812 236.203125 379.757812 235.835938 C 380.007812 235.460938 380.132812 234.957031 380.132812 234.320312 C 380.132812 233.6875 380.007812 233.191406 379.757812 232.835938 C 379.507812 232.472656 379.105469 232.289062 378.554688 232.289062 C 378.011719 232.289062 377.617188 232.472656 377.367188 232.835938 C 377.117188 233.191406 376.992188 233.6875 376.992188 234.320312 Z M 376.992188 234.320312 " transform=" rotate(  340 392.843 234.006) " style="fill:none;stroke-width:3;stroke-linecap:butt;stroke-linejoin:round;stroke:rgb(100%,100%,100%);stroke-opacity:0.6;stroke-miterlimit:10;"/>
  <path d="M 382.152344 233.789062 C 382.152344 232.613281 382.328125 231.695312 382.683594 231.039062 C 383.035156 230.382812 383.609375 229.972656 384.402344 229.804688 C 384.828125 229.710938 385.25 229.628906 385.667969 229.554688 C 386.082031 229.484375 386.46875 229.414062 386.824219 229.351562 L 386.980469 230.132812 C 386.75 230.164062 386.484375 230.207031 386.183594 230.257812 C 385.890625 230.300781 385.597656 230.347656 385.308594 230.398438 C 385.027344 230.453125 384.78125 230.503906 384.574219 230.554688 C 384.144531 230.648438 383.800781 230.875 383.542969 231.226562 C 383.292969 231.582031 383.152344 232.132812 383.121094 232.882812 L 383.183594 232.882812 C 383.277344 232.757812 383.402344 232.632812 383.558594 232.507812 C 383.722656 232.375 383.921875 232.257812 384.152344 232.164062 C 384.378906 232.070312 384.640625 232.023438 384.933594 232.023438 C 385.628906 232.023438 386.15625 232.25 386.511719 232.695312 C 386.863281 233.132812 387.042969 233.710938 387.042969 234.429688 C 387.042969 235.023438 386.9375 235.523438 386.730469 235.929688 C 386.519531 236.328125 386.234375 236.625 385.871094 236.820312 C 385.503906 237.007812 385.078125 237.101562 384.589844 237.101562 C 383.847656 237.101562 383.253906 236.820312 382.808594 236.257812 C 382.371094 235.695312 382.152344 234.875 382.152344 233.789062 Z M 384.652344 236.382812 C 385.089844 236.382812 385.4375 236.242188 385.699219 235.960938 C 385.96875 235.679688 386.105469 235.203125 386.105469 234.523438 C 386.105469 233.972656 386 233.539062 385.792969 233.226562 C 385.59375 232.90625 385.261719 232.742188 384.792969 232.742188 C 384.5 232.742188 384.234375 232.8125 383.996094 232.945312 C 383.753906 233.070312 383.550781 233.21875 383.386719 233.382812 C 383.230469 233.550781 383.121094 233.691406 383.058594 233.804688 C 383.058594 234.140625 383.078125 234.457031 383.121094 234.757812 C 383.171875 235.0625 383.253906 235.335938 383.371094 235.585938 C 383.484375 235.828125 383.644531 236.019531 383.855469 236.164062 C 384.074219 236.3125 384.339844 236.382812 384.652344 236.382812 Z M 384.652344 236.382812 " transform=" rotate(  340 392.843 234.006) " style="fill:none;stroke-width:3;stroke-linecap:butt;stroke-linejoin:round;stroke:rgb(100%,100%,100%);stroke-opacity:0.6;stroke-miterlimit:10;"/>
  <path d="M 393.09375 234.320312 C 393.09375 235.207031 392.863281 235.894531 392.40625 236.382812 C 391.957031 236.863281 391.351562 237.101562 390.59375 237.101562 C 390.113281 237.101562 389.6875 237 389.3125 236.789062 C 388.945312 236.570312 388.65625 236.253906 388.4375 235.835938 C 388.226562 235.421875 388.125 234.914062 388.125 234.320312 C 388.125 233.4375 388.347656 232.753906 388.796875 232.273438 C 389.242188 231.796875 389.851562 231.554688 390.625 231.554688 C 391.101562 231.554688 391.523438 231.664062 391.890625 231.882812 C 392.265625 232.09375 392.554688 232.40625 392.765625 232.820312 C 392.984375 233.226562 393.09375 233.726562 393.09375 234.320312 Z M 389.03125 234.320312 C 389.03125 234.957031 389.15625 235.460938 389.40625 235.835938 C 389.65625 236.203125 390.054688 236.382812 390.609375 236.382812 C 391.148438 236.382812 391.546875 236.203125 391.796875 235.835938 C 392.046875 235.460938 392.171875 234.957031 392.171875 234.320312 C 392.171875 233.6875 392.046875 233.191406 391.796875 232.835938 C 391.546875 232.472656 391.144531 232.289062 390.59375 232.289062 C 390.050781 232.289062 389.65625 232.472656 389.40625 232.835938 C 389.15625 233.191406 389.03125 233.6875 389.03125 234.320312 Z M 389.03125 234.320312 " transform=" rotate(  340 392.843 234.006) " style="fill:none;stroke-width:3;stroke-linecap:butt;stroke-linejoin:round;stroke:rgb(100%,100%,100%);stroke-opacity:0.6;stroke-miterlimit:10;"/>
  <path d="M 398.566406 237.007812 L 397.675781 237.007812 L 397.675781 232.382812 L 396.082031 232.382812 C 395.996094 233.507812 395.878906 234.414062 395.722656 235.101562 C 395.574219 235.789062 395.371094 236.289062 395.113281 236.601562 C 394.863281 236.914062 394.542969 237.070312 394.160156 237.070312 C 394.074219 237.070312 393.992188 237.0625 393.910156 237.054688 C 393.824219 237.054688 393.753906 237.039062 393.691406 237.007812 L 393.691406 236.351562 C 393.730469 236.363281 393.773438 236.375 393.816406 236.382812 C 393.867188 236.382812 393.917969 236.382812 393.972656 236.382812 C 394.324219 236.382812 394.613281 236.003906 394.832031 235.242188 C 395.050781 234.472656 395.214844 233.273438 395.332031 231.648438 L 398.566406 231.648438 Z M 398.566406 237.007812 " transform=" rotate(  340 392.843 234.006) " style="fill:none;stroke-width:3;stroke-linecap:butt;stroke-linejoin:round;stroke:rgb(100%,100%,100%);stroke-opacity:0.6;stroke-miterlimit:10;"/>
  <path d="M 401.144531 233.851562 L 402.722656 233.851562 C 404.117188 233.851562 404.816406 234.359375 404.816406 235.367188 C 404.816406 235.867188 404.644531 236.269531 404.300781 236.570312 C 403.964844 236.863281 403.429688 237.007812 402.691406 237.007812 L 400.253906 237.007812 L 400.253906 231.648438 L 401.144531 231.648438 Z M 403.941406 235.414062 C 403.941406 235.09375 403.824219 234.875 403.597656 234.757812 C 403.367188 234.632812 403.042969 234.570312 402.628906 234.570312 L 401.144531 234.570312 L 401.144531 236.304688 L 402.644531 236.304688 C 403.019531 236.304688 403.324219 236.238281 403.566406 236.101562 C 403.816406 235.96875 403.941406 235.738281 403.941406 235.414062 Z M 403.941406 235.414062 " transform=" rotate(  340 392.843 234.006) " style="fill:none;stroke-width:3;stroke-linecap:butt;stroke-linejoin:round;stroke:rgb(100%,100%,100%);stroke-opacity:0.6;stroke-miterlimit:10;"/>
  <path d="M 408.347656 237.101562 C 407.878906 237.101562 407.457031 237.007812 407.082031 236.820312 C 406.714844 236.625 406.425781 236.320312 406.207031 235.914062 C 405.996094 235.507812 405.894531 234.988281 405.894531 234.351562 C 405.894531 233.695312 406.003906 233.164062 406.222656 232.757812 C 406.441406 232.34375 406.738281 232.039062 407.113281 231.851562 C 407.496094 231.65625 407.929688 231.554688 408.410156 231.554688 C 408.679688 231.554688 408.941406 231.582031 409.191406 231.632812 C 409.449219 231.6875 409.660156 231.753906 409.816406 231.835938 L 409.550781 232.570312 C 409.382812 232.507812 409.191406 232.453125 408.972656 232.398438 C 408.761719 232.347656 408.570312 232.320312 408.394531 232.320312 C 407.332031 232.320312 406.800781 233 406.800781 234.351562 C 406.800781 235 406.929688 235.492188 407.191406 235.835938 C 407.449219 236.179688 407.832031 236.351562 408.332031 236.351562 C 408.632812 236.351562 408.894531 236.320312 409.113281 236.257812 C 409.332031 236.195312 409.535156 236.125 409.722656 236.039062 L 409.722656 236.820312 C 409.542969 236.914062 409.347656 236.984375 409.128906 237.023438 C 408.910156 237.074219 408.648438 237.101562 408.347656 237.101562 Z M 408.347656 237.101562 " transform=" rotate(  340 392.843 234.006) " style="fill:none;stroke-width:3;stroke-linecap:butt;stroke-linejoin:round;stroke:rgb(100%,100%,100%);stroke-opacity:0.6;stroke-miterlimit:10;"/>
  <path d="M 414.164062 231.648438 L 415.132812 231.648438 L 412.835938 234.226562 L 415.320312 237.007812 L 414.304688 237.007812 L 411.882812 234.289062 L 411.882812 237.007812 L 410.992188 237.007812 L 410.992188 231.648438 L 411.882812 231.648438 L 411.882812 234.242188 Z M 414.164062 231.648438 " transform=" rotate(  340 392.843 234.006) " style="fill:none;stroke-width:3;stroke-linecap:butt;stroke-linejoin:round;stroke:rgb(100%,100%,100%);stroke-opacity:0.6;stroke-miterlimit:10;"/>
  <g transform=" rotate(  340 392.843 234.006) " style="fill:rgb(13.333333%,13.333333%,13.333333%);fill-opacity:1;">
   <use xlink:href="#glyph0-1" y="237.006493" x="370.678398"/>
   <use xlink:href="#glyph0-2" y="237.006493" x="375.538398"/>
   <use xlink:href="#glyph0-3" y="237.006493" x="381.588398"/>
   <use xlink:href="#glyph0-2" y="237.006493" x="387.578398"/>
   <use xlink:href="#glyph0-4" y="237.006493" x="393.628398"/>
   <use xlink:href="#glyph0-5" y="237.006493" x="399.408398"/>
   <use xlink:href="#glyph0-6" y="237.006493" x="405.348398"/>
   <use xlink:href="#glyph0-7" y="237.006493" x="410.148398"/>
  </g>
 </g>
</svg>

<svg xmlns="http://www.w3.org/2000/svg" xmlns:xlink="http://www.w3.org/1999/xlink" viewBox="0 0 497 279"> <defs overflow="visible" style="stroke:none">  <path id="g" d="M4-5.4h1L2.7-2.8 5.2 0h-1L1.7-2.7V0H.8v-5.4h1v2.6Zm0 0"/>  <path id="f" d="M3 0c-.5 0-.9 0-1.3-.1-.3-.3-.6-.6-.7-.9-.4-.5-.5-1-.5-1.7 0-.6.2-1.1.5-1.5 0-.6.4-.8.8-1.1.2-.1.8-.2 1.2-.2l.8.1.7.2-.3.8-.6-.2H3c-1-.1-1.5.6-1.5 1.9 0 .7 0 1 .3 1.4.3.5.7.6 1.2.6h.8l.6-.3v.8a2 2 0 0 1-.6.2H3Zm0 0"/>  <path id="e" d="M1.7-3.2h1.6c1.4 0 2.1.6 2.1 1.6 0 .5-.2.9-.4 1.2-.4.3-1 .4-1.7.4H.8v-5.4h1Zm2.8 1.6c0-.3 0-.4-.3-.6-.2-.3-.6-.3-1-.3H1.7v1.8h1.5c.4 0 .8 0 1-.2.2-.1.3-.4.3-.7Zm0 0"/>  <path id="d" d="M5 0H4v-4.6H2.5L2-2 1.5-.4c-.3.3-.6.4-1 .4H0v-.7h.4c.3.1.6-.3.8-.9.2-1 .4-2.2.5-3.9h3.2Zm0 0"/>  <path id="c" d="M.6-3.2C.6-4.4.7-5.3 1-6c.4-.6 1-1 1.8-1.2l1.3-.3c.4 0 .8 0 1.1-.2l.2.8-.8.2a31.4 31.4 0 0 0-1.6.2c-.4.1-.8.5-1 .7-.3.4-.4 1-.5 1.8l.5-.5c0-.1.3-.3.6-.3a2 2 0 0 1 .7-.2c.7 0 1.3.2 1.7.7.3.3.5 1 .5 1.7C5.5-2 5.3-1.5 5-1l-.7 1H3c-.7 0-1.3-.2-1.8-.7C.8-1.4.6-2.1.6-3.3ZM3-.6c.5 0 .8-.2 1-.4.4-.3.5-.8.5-1.5 0-.5 0-1-.3-1.3-.2-.2-.5-.5-1-.5l-.8.3-.6.4c-.2.1-.3.3-.3.4v1c0 .2.2.4.3.8 0 .2.2.4.5.6l.7.2Zm0 0"/>  <path id="b" d="M5.5-2.7c0 .9-.2 1.7-.7 2-.4.7-1 .9-1.8.9-.5-.2-.9-.2-1.3-.4-.3-.2-.6-.6-.7-1C.6-1.6.5-2 .5-2.7c0-.9.3-1.6.7-2 .5-.5 1-.8 1.8-.8.5 0 1 .2 1.3.5.4 0 .7.4.9.9.2.2.3.7.3 1.3Zm-4 0c0 .7 0 1.2.3 1.5.3.4.7.6 1.2.6.6 0 1-.2 1.2-.6.3-.3.4-.8.4-1.5s-.1-1.1-.4-1.5c-.2-.3-.6-.5-1.2-.5-.5 0-1 .2-1.2.5-.2.4-.3.9-.3 1.5Zm0 0"/>  <path id="a" d="M3.2 0h-.9v-6.3H.1v-.8h5.4v.8H3.2Zm0 0"/>  <path d="M1 0v-7.1h4V0Zm.4-.5h3.1v-6.1h-3Zm.1 0"/> </defs> <image xlink:href="svg/9/19_21.jpg" width="497" height="279"/> <path d="M374 237h-1v-6.3h-2.2v-.8h5.2v.8h-2Zm7-2.7c0 1-.1 1.7-.5 2-.6.7-1.1.9-1.9.9-.6-.1-1-.2-1.3-.4-.4-.2-.7-.5-.9-1-.2-.4-.3-.8-.3-1.5-.1-.9.2-1.5.7-2 .4-.5 1-.7 1.8-.7.4 0 .9 0 1.3.3.3.1.6.5.8 1 .3.2.4.7.4 1.3Zm-4 0c0 .7 0 1.2.4 1.5.2.4.6.6 1.2.6.4 0 1-.2 1.2-.6.2-.3.2-.8.2-1.5.1-.6.1-1.1-.2-1.5-.3-.3-.8-.5-1.2-.5-.6 0-1 .2-1.2.5-.4.4-.4.9-.4 1.5Zm5.2-.5c0-1.2.1-2.1.5-2.8.3-.6 1-1 1.7-1.2l1.3-.2 1.1-.2.2.6-.8.3a31.4 31.4 0 0 0-1.6.3c-.6 0-.8.3-1 .6-.4.4-.5 1-.6 1.8l.7-.5.5-.3a2 2 0 0 1 .7-.2c.7 0 1.3.3 1.6.7.5.4.5 1 .5 1.7 0 .6 0 1.1-.3 1.6l-.7 1h-1.4c-.8.1-1.3-.2-1.8-.7-.4-.6-.6-1.4-.6-2.5Zm2.5 2.6c.3 0 .7-.2 1-.4.3-.3.4-.8.4-1.5 0-.5-.1-1-.3-1.3-.2-.2-.5-.5-1-.5l-.8.3-.6.4-.4.4v1c.1.2.3.5.4.8 0 .2.2.4.5.6l.8.2Zm8.3-2.1c0 1 0 1.7-.5 2-.5.7-1.1.9-1.9.9-.6-.1-1-.2-1.3-.4-.3-.2-.6-.5-.9-1-.2-.4-.3-.8-.3-1.5 0-.9.2-1.5.7-2 .4-.5 1-.7 1.8-.7.5 0 1 0 1.4.3.3.1.6.5.8 1 .2.2.2.7.2 1.3Zm-4 0c0 .7.2 1.2.4 1.5.3.4.7.6 1.2.6s1-.2 1.2-.6c.2-.3.4-.8.4-1.5 0-.6-.2-1.1-.4-1.5-.3-.3-.7-.5-1.2-.5s-1 .2-1.2.5c-.2.4-.4.9-.4 1.5Zm9.6 2.7h-1v-4.6h-1.4l-.5 2.6c-.1.8-.3 1.3-.6 1.6-.1.3-.6.5-1 .5h-.3v-.8h.2c.3.1.6-.3.8-1.1.3-.7.4-2 .5-3.6h3.3Zm2.5-3.1h1.6c1.4 0 2.1.5 2.1 1.5 0 .5-.2.9-.5 1.2-.3.3-.9.4-1.6.4h-2.4v-5.4h.7Zm2.9 1.5c0-.3 0-.4-.4-.6-.2-.2-.6-.2-1-.2h-1.5v1.7h1.5c.4 0 .7 0 1-.2.2-.1.3-.4.3-.7Zm4.3 1.7c-.3 0-.8 0-1.2-.3-.4-.2-.7-.5-.9-.8-.2-.5-.2-1-.2-1.6-.1-.7 0-1.2.2-1.6.2-.5.5-.8 1-1l1.1-.1h.9l.6.1-.2.8-.6-.2h-.6c-1-.1-1.6.6-1.6 1.9 0 .7.1 1.1.4 1.5.2.4.6.6 1.1.6l.8-.1.6-.3v.8a2 2 0 0 1-.6.2l-.8.1Zm5.9-5.5h1l-2.5 2.6 2.6 2.8h-1l-2.4-2.7v2.7h-1v-5.4h1.1v2.6Zm0 0" style="fill:none;stroke-width:3;stroke-linecap:butt;stroke-linejoin:round;stroke:#fff;stroke-opacity:.6;stroke-miterlimit:10" transform=" rotate(  340 392.843 234.006) "/> <g style="fill:#222;fill-opacity:1" transform=" rotate(  340 392.843 234.006) ">  <use xlink:href="#a" x="370.7" y="237"/>  <use xlink:href="#b" x="375.5" y="237"/>  <use xlink:href="#c" x="381.6" y="237"/>  <use xlink:href="#b" x="387.6" y="237"/>  <use xlink:href="#d" x="393.6" y="237"/>  <use xlink:href="#e" x="399.4" y="237"/>  <use xlink:href="#f" x="405.3" y="237"/>  <use xlink:href="#g" x="410.1" y="237"/> </g></svg>
